svgs/sharp-solid/arrow-down-to-bracket.svg

<svg xmlns="http://www.w3.org/2000/svg" viewBox="0 0 448 512"><!--! Font Awesome Pro 6.6.0 by @fontawesome - https://fontawesome.com License - https://fontawesome.com/license (Commercial License) Copyright 2024 Fonticons, Inc. --><path d="M246.6 342.6L224 365.3l-22.6-22.6-128-128L50.7 192 96 146.7l22.6 22.6L192 242.7 192 32l0-32 64 0 0 32 0 210.7 73.4-73.4L352 146.7 397.3 192l-22.6 22.6-128 128zM64 352l0 96 320 0 0-96 0-32 64 0 0 32 0 128 0 32-32 0L32 512 0 512l0-32L0 352l0-32 64 0 0 32z"/></svg>

<svg xmlns="http://www.w3.org/2000/svg" viewBox="0 0 448 512"><!--! Font Awesome Pro 6.4.0 by @fontawesome - https://fontawesome.com License - https://fontawesome.com/license (Commercial License) Copyright 2023 Fonticons, Inc. --><path d="M246.6 342.6L224 365.3l-22.6-22.6-128-128L50.7 192 96 146.7l22.6 22.6L192 242.7V32 0h64V32 242.7l73.4-73.4L352 146.7 397.3 192l-22.6 22.6-128 128zM64 352v96H384V352 320h64v32V480v32H416 32 0V480 352 320H64v32z"/></svg>
